;500x500 Square
;Machine (Parameters) Initial
M48         ;enable the speed & feed override, M49 to disable
G21        ;use millimetres for length units, G20 to use inches
G90        ;set absolute distance mode, G91 to set incremental distance mode
G28 X0 Y0 Z0  ;go home

;Layer count: 5

;LAYER:0
;G0 X155.0 Y473.0 Z24.0 F9000
;G4 P3                       ;dwell 3 second before start to print

;;;;;;;;;;;;;;;;;;;;;;;;;;;;;;;;;;;;;;;;;;;;;;;;;

;G2 X655.0 R1 ;TRIAL R (necessary) is any number but 0
;G2 I50       ;I argument is the radius of the circle ;along with x-axis opps. to J; and also the rotation direction determined by the G2/G3
;The path of R1 and R100 are exactly same?
G0 X0 Y0 Z0
G4 P3
;G91
;#1G2 R100 X100 Y100
;#1G2 R100 X-100 Y-100
G3 I-20
G3 I20
G3 J20
G3 J-20
;G90
G0 Z100
G28 X0 Y0 Z0
G4 P10

;;;;;;;;;;;;;;;;;;;;;;;;;;;;;;;;;;;;;;;;;;;;;;;;;

;LAYER:1
G1 X655.0 Y473.0 F2100      ;X155.0->655.0
G1 X655.0 Y973.0            ;Y473.0->973.0
G1 X155.0 Y973.0            ;X655.0->155.0
G1 X155.0 Y473.0            ;Y973.0->473.0

;LAYER:2
G0 Z44.00
G1 X655.0 Y473.0
G1 X655.0 Y973.0
G1 X155.0 Y973.0
G1 X155.0 Y473.0

;LAYER:3
G0 Z64.00
G1 X655.0 Y473.0
G1 X655.0 Y973.0
G1 X155.0 Y973.0
G1 X155.0 Y473.0

;LAYER:4
G0 Z84.00
G1 X655.0 Y473.0
G1 X655.0 Y973.0
G1 X155.0 Y973.0
G1 X155.0 Y473.0

;LAYER:5
G0 Z104.00
G1 X655.0 Y473.0
G1 X655.0 Y973.0
G1 X155.0 Y973.0
G1 X155.0 Y473.0

;makerstorage End GCode
G91                         ;relative positioning
G0 Z+20                     ;move Z up a bit
G28 X0 Y0 Z0                ;home x/y
G90                         ;absolute positioning
