;500x500 Square, 5 Layers
;Machine (Parameters) Initial
M48         ;enable the speed & feed override, M49 to disable
G21         ;use millimetres for length units, G20 to use inches
G90         ;set absolute distance mode, G91 to set incremental distance mode
G28         ;go home

;LAYER:0
G0 X155.0 Y473.0 Z20.0
G4 P3                       ;dwell 3 second before start to print

;LAYER:1
G1 X655.0 Y473.0 F7400      ;X155.0->655.0
G1 X655.0 Y973.0            ;Y473.0->973.0
G1 X155.0 Y973.0            ;X655.0->155.0
G1 X155.0 Y673.0            ;buffer left for Z
G1 X155.0 Y473.0 Z35.0      ;Y973.0->473.0

;LAYER:2
G1 X655.0 Y473.0
G1 X655.0 Y973.0
G1 X155.0 Y973.0
G1 X155.0 Y673.0
G1 X155.0 Y473.0 Z50.0

;LAYER:3
G1 X655.0 Y473.0
G1 X655.0 Y973.0
G1 X155.0 Y973.0
G1 X155.0 Y673.0
G1 X155.0 Y473.0 Z65.0

;LAYER:4
G1 X655.0 Y473.0
G1 X655.0 Y973.0
G1 X155.0 Y973.0
G1 X155.0 Y673.0
G1 X155.0 Y473.0 Z80.0

;LAYER:5
G1 X655.0 Y473.0
G1 X655.0 Y973.0
G1 X155.0 Y973.0
G1 X155.0 Y673.0
G1 X155.0 Y473.0 Z95.0

;LAYER:6
G1 X655.0 Y473.0
G1 X655.0 Y973.0
G1 X155.0 Y973.0
G1 X155.0 Y673.0
G1 X155.0 Y473.0 Z110.0

;LAYER:7
G1 X655.0 Y473.0
G1 X655.0 Y973.0
G1 X155.0 Y973.0
G1 X155.0 Y673.0
G1 X155.0 Y473.0 Z125.0

;LAYER:8
G1 X655.0 Y473.0
G1 X655.0 Y973.0
G1 X155.0 Y973.0
G1 X155.0 Y673.0
G1 X155.0 Y473.0 Z140.0

;LAYER:9
G1 X655.0 Y473.0
G1 X655.0 Y973.0
G1 X155.0 Y973.0
G1 X155.0 Y673.0
G1 X155.0 Y473.0

;End
G91                     ;relative positioning
G0 X-100 Y-100 Z+100    ;move XYZ away from the concrete
G90                     ;absolute positioning
G28                     ;home



;;;;;;;;;;;;;;;;;;;;;;;;;;;;;;;;;;;;;;;;;;;;;;;;;

;G2 X655.0 R1 ;TRIAL R (necessary) is any number but 0
;G2 I50       ;I argument is the radius of the circle ;along with x-axis opps. to J; and also the rotation direction determined by the G2/G3
;The path of R1 and R100 are exactly same?
;G28 no need XYZ, just "G28" then it will go home directly
;G0 X200 Y200
;G4 P3
;G91
;#1G2 R100 X100 Y100
;#1G2 R100 X-100 Y-100
;G2 X50 Y100 R1
;G90
;G0 Z100
;G28
;G28 X0 Y0 Z0
;G4 P10

;;;;;;;;;;;;;;;;;;;;;;;;;;;;;;;;;;;;;;;;;;;;;;;;;
