;500x500 Square, 5 Layers
;Machine (Parameters) Initial
M48         ;enable the speed & feed override, M49 to disable
G21         ;use millimetres for length units, G20 to use inches
G90         ;set absolute distance mode, G91 to set incremental distance mode
G28         ;go home

;LAYER:0
G0 X155.0 Y473.0 Z25.0 F9000
G4 P3                       ;dwell 3 second before start to print

;LAYER:1
G1 X655.0 Y473.0 F3600      ;X155.0->655.0
G1 X655.0 Y973.0            ;Y473.0->973.0
G1 X155.0 Y973.0            ;X655.0->155.0
G1 X155.0 Y473.0            ;Y973.0->473.0

;LAYER:2
G0 Z45.00
G1 X655.0 Y473.0
G1 X655.0 Y973.0
G1 X155.0 Y973.0
G1 X155.0 Y473.0

;LAYER:3
G0 Z65.00
G1 X655.0 Y473.0
G1 X655.0 Y973.0
G1 X155.0 Y973.0
G1 X155.0 Y473.0

;LAYER:4
G0 Z85.00
G1 X655.0 Y473.0
G1 X655.0 Y973.0
G1 X155.0 Y973.0
G1 X155.0 Y473.0

;LAYER:5
G0 Z105.00
G1 X655.0 Y473.0
G1 X655.0 Y973.0
G1 X155.0 Y973.0
G1 X155.0 Y473.0

;LAYER:6
G0 Z125.00
G1 X655.0 Y473.0
G1 X655.0 Y973.0
G1 X155.0 Y973.0
G1 X155.0 Y473.0

;LAYER:7
G0 Z145.00
G1 X655.0 Y473.0
G1 X655.0 Y973.0
G1 X155.0 Y973.0
G1 X155.0 Y473.0

;LAYER:8
G0 Z165.00
G1 X655.0 Y473.0
G1 X655.0 Y973.0
G1 X155.0 Y973.0
G1 X155.0 Y473.0

;LAYER:9
G0 Z185.00
G1 X655.0 Y473.0
G1 X655.0 Y973.0
G1 X155.0 Y973.0
G1 X155.0 Y473.0

;End
G91
G0 X-20 Y-20 Z+20
G90
G28
